X: 25580
T: Market Day, The
R: reel
M: 4/4
K: Dmajor
|:d2 AG FDDG|FDFG ABcA|dcAG FDDg|fdec d2 (3gfe|
d2 AG FDDG|FDFG ABcA|dcAG FDDg|1 fdec d2 (3gfe|2fdec d3A:|
|:defg afed|cdef gdec|defg a2 fd|faag fedc|
defg afed|cdef g2fg|af (3gfe fdcd|1 faag fddA:|2 faag fdec||

